X: 1
T: Doon Reel, The
M: 4/4
L: 1/8
K: D
~F3A GEEG|FDDF ABAG|~F3A G~E3|AFGE FDDE
~F3A G~E3|F/E/D FG ABAG|FGAF GEEG|AFGE FDDF||
Ad d/d/d dcAB|AGFG ABcA|~d3e dcAB|=cBAF G2 FG|
Adfe dcAB|AGFG AB c/B/A|d2 fd adfd|d/d/d fd ecAG||
